symbols/web/crib/materialsymbolsrounded/crib_wght100grad200_48px.svg

<svg xmlns="http://www.w3.org/2000/svg" height="48" width="48"><path d="M13.65 27.95H34.4q.7 0 1.15-.45.45-.45.45-1.15V22.6q0-.7-.45-1.15Q35.1 21 34.4 21H20.5v-7.4q0-.7-.45-1.15Q19.6 12 18.9 12H16q-1.65 0-2.8 1.175T12.05 16v10.35q0 .7.45 1.15.45.45 1.15.45Zm10.4 9.8q1.35 0 2.625-.2t2.475-.6V29.7H18.9v7.25q1.2.4 2.475.6 1.275.2 2.675.2ZM24 39.5q-3.15 0-6.125-1.075T12.3 35.4q-.35-.25-.375-.65-.025-.4.275-.75.25-.2.55-.2.3 0 .55.15.85.7 1.825 1.275t2.025.975v-6.5h-3.5q-1.4 0-2.375-.975-.975-.975-.975-2.375V16q0-2.4 1.65-4.075Q13.6 10.25 16 10.25h2.9q1.35 0 2.35 1t1 2.35v5.65H34.4q1.4 0 2.375.975.975.975.975 2.375v3.75q0 1.4-.975 2.375-.975.975-2.375.975h-3.5v6.5q1-.4 1.975-.975.975-.575 1.875-1.275.2-.15.5-.15t.55.2q.3.35.275.75-.025.4-.325.65-2.65 1.95-5.625 3.025T24 39.5ZM24 20Z"/></svg>

<svg xmlns="http://www.w3.org/2000/svg" height="48" width="48"><path d="M13.65 27.95H34.4Q35.1 27.95 35.55 27.5Q36 27.05 36 26.35V22.6Q36 21.9 35.55 21.45Q35.1 21 34.4 21H20.5V13.6Q20.5 12.9 20.05 12.45Q19.6 12 18.9 12H16Q14.35 12 13.2 13.175Q12.05 14.35 12.05 16V26.35Q12.05 27.05 12.5 27.5Q12.95 27.95 13.65 27.95ZM24.05 37.75Q25.4 37.75 26.675 37.55Q27.95 37.35 29.15 36.95V29.7H18.9V36.95Q20.1 37.35 21.375 37.55Q22.65 37.75 24.05 37.75ZM24 39.5Q20.85 39.5 17.875 38.425Q14.9 37.35 12.3 35.4Q11.95 35.15 11.925 34.75Q11.9 34.35 12.2 34Q12.45 33.8 12.75 33.8Q13.05 33.8 13.3 33.95Q14.15 34.65 15.125 35.225Q16.1 35.8 17.15 36.2V29.7H13.65Q12.25 29.7 11.275 28.725Q10.3 27.75 10.3 26.35V16Q10.3 13.6 11.95 11.925Q13.6 10.25 16 10.25H18.9Q20.25 10.25 21.25 11.25Q22.25 12.25 22.25 13.6V19.25H34.4Q35.8 19.25 36.775 20.225Q37.75 21.2 37.75 22.6V26.35Q37.75 27.75 36.775 28.725Q35.8 29.7 34.4 29.7H30.9V36.2Q31.9 35.8 32.875 35.225Q33.85 34.65 34.75 33.95Q34.95 33.8 35.25 33.8Q35.55 33.8 35.8 34Q36.1 34.35 36.075 34.75Q36.05 35.15 35.75 35.4Q33.1 37.35 30.125 38.425Q27.15 39.5 24 39.5ZM24 20Q24 20 24 20Q24 20 24 20Q24 20 24 20Q24 20 24 20Q24 20 24 20Q24 20 24 20Q24 20 24 20Q24 20 24 20Q24 20 24 20Q24 20 24 20Z"/></svg>
